art/logos/pecom64.svg

<svg xmlns="http://www.w3.org/2000/svg" viewBox="0 0 600 300"><g fill="none" stroke-width="2"><path stroke="#ffc015" d="M65.75 64.04q.12.73.13 1.46.12 79.73.12 159.46" vector-effect="non-scaling-stroke"/><path stroke="#91d826" d="m91 64.04-.06 160.93" vector-effect="non-scaling-stroke"/><path stroke="#317d8c" d="m115.95 64.24.11 160.73" vector-effect="non-scaling-stroke"/></g><path fill="#ff0" d="M65.75 64.04H91l-.06 160.93-24.94-.01q0-79.73-.12-159.46-.01-.73-.13-1.46"/><path d="M280.9 144a65.9 65.9 0 0 1-65.9 65.9 65.9 65.9 0 0 1-65.9-65.9A65.9 65.9 0 0 1 215 78.1a65.9 65.9 0 0 1 65.9 65.9m-5.94 0A59.96 59.96 0 0 0 215 84.04 59.96 59.96 0 0 0 155.04 144 59.96 59.96 0 0 0 215 203.96 59.96 59.96 0 0 0 274.96 144M498.32 142.8a.34.34 0 0 0 .61.24c6.28-7.92 17.98-6.19 21.6 3.19 3.59 9.32-2.27 20.95-13.03 20.56q-9.67-.34-12.84-10.23c-2.41-7.54-2.4-22.88 3.72-29.47 6.99-7.55 19.8-5.38 22.21 5.35a1 .99 82.1 0 1-.91 1.21l-3.53.24a.78.76 79.4 0 1-.78-.55q-2.39-8.08-9.73-5.81c-5.82 1.8-6.99 10.61-7.32 15.27m9.736 19.707a9.96 8.58 88.7 0 0 8.352-10.152 9.96 8.58 88.7 0 0-8.804-9.762 9.96 8.58 88.7 0 0-8.352 10.152 9.96 8.58 88.7 0 0 8.804 9.762"/><path d="m195.52 146.81-.07 13.63a.56.56 0 0 0 .56.56h25.18a.56.56 0 0 1 .56.56v3.88a.56.56 0 0 1-.56.56h-30.88a.56.56 0 0 1-.56-.56v-41.88a.56.56 0 0 1 .56-.56h29.88a.56.56 0 0 1 .56.56v3.88a.56.56 0 0 1-.56.56h-24.13a.56.56 0 0 0-.56.56v12.13a.56.56 0 0 0 .56.56h22.63a.56.56 0 0 1 .56.56v3.88a.56.56 0 0 1-.56.56h-22.61a.56.56 0 0 0-.56.56"/><rect width="5.26" height="6" x="-2.63" y="-3" rx=".6" transform="rotate(.4 -17932.657 33133.99)"/><path d="M306.5 149.06v16.31a.63.63 0 0 1-.63.63h-4.5a.63.62-90 0 1-.62-.63v-41.9a.43.42-90 0 1 .42-.43q6.39-.1 12.83-.03c8.07.1 14.95-.41 18.19 6.79q2.7 5.99-.1 11.81c-4.15 8.6-15.79 6.93-25.09 6.95a.5.5 0 0 0-.5.5m-.03-20.44.04 14.37a.51.5 89.4 0 0 .5.5q6.54.12 13.04-.14c8.29-.33 10.77-11.2 3.73-14.43-3.83-1.76-11.97-.89-16.69-.91a.61.61 0 0 0-.62.61M541.94 123.94q1.57-2.05 4.36-.7a.79.78-77.6 0 1 .45.71v26.42a.63.63 0 0 0 .63.63h4.5a.62.62 0 0 1 .62.62v3.5a.63.62-90 0 1-.62.63h-4.38a.75.75 0 0 0-.75.75v8.87a.63.62-90 0 1-.62.63h-4a.63.63 0 0 1-.63-.63v-9.12a.5.5 0 0 0-.5-.5h-17.49a.59.59 0 0 1-.58-.47c-.46-2.16-.41-3.86.92-5.78q14.11-20.37 18.09-25.56m-.42 8.85a.33.33 0 0 0-.6-.19l-12.62 17.88a.33.33 0 0 0 .27.52h12.63a.33.33 0 0 0 .33-.33zM356.04 166.22c-21.94 4.77-25.24-26.71-9.25-31.3 12.04-3.47 19.87 4.87 19.11 16.25a.62.62 0 0 1-.62.58h-22.3a.58.58 0 0 0-.58.6c.39 10.5 12.75 14.43 18.17 4.32a.88.88 0 0 1 .88-.46l3.6.42a.63.62-78 0 1 .52.81q-2.23 7.19-9.53 8.78m4.57-19.23c-.84-11.85-17.11-11.53-18.03.01a.47.46 2.2 0 0 .47.5h17.08a.48.48 0 0 0 .48-.51"/><path d="M377.83 135.08c6.88-3.3 15.97.05 17.78 8.29a.59.57-11.1 0 1-.48.7l-3.85.6a.76.76 0 0 1-.82-.46c-2.09-4.91-5.98-8.18-11.16-4.82-5.27 3.41-5.37 12.31-3.58 17.63 2.21 6.58 12.4 7.8 14.74.49q.41-1.28.86-2.53a.63.63 0 0 1 .68-.4l3.71.53a.86.86 0 0 1 .71 1.08q-2.66 9.65-11.4 10.43c-18.03 1.61-20.76-25.03-7.19-31.54M403.89 135.96c5.21-3.2 12.64-2.48 17.2 1.7 5.43 4.98 5.95 15.57 2.73 21.8-5.26 10.16-21.64 9.91-25.66-1.84-2.55-7.49-1.41-17.27 5.73-21.66m7.447 26.71a12.31 9.33 90.2 0 0 9.373-12.277 12.31 9.33 90.2 0 0-9.287-12.343 12.31 9.33 90.2 0 0-9.373 12.277 12.31 9.33 90.2 0 0 9.287 12.343M435.56 138.26a.33.32-23.8 0 0 .58.22c3.84-4.75 14.56-7.2 17.25-.01a.52.52 0 0 0 .86.18q5.02-5.15 10.89-4.52c4.98.52 7.8 3.87 7.94 8.81q.31 11.26.09 22.52a.55.54-89.5 0 1-.54.54h-4.02a.56.56 0 0 1-.56-.56q-.06-10.49-.03-20.93c.02-7.57-9.31-7.65-12.17-2.29-2.36 4.41-1.12 17.74-1.1 23.14a.64.64 0 0 1-.64.64h-3.97a.64.64 0 0 1-.64-.64q.04-10.46-.03-20.85c-.05-8.26-9.99-7.39-12.41-1.36-1.99 4.97-.84 16.55-.81 22.22a.63.63 0 0 1-.63.63h-3.99a.63.63 0 0 1-.63-.63v-30a.63.63 0 0 1 .63-.63l3.49.01a.63.63 0 0 1 .63.68z"/><rect width="5.26" height="31.26" x="228.25" y="134.75" rx=".6"/><path fill="#ff8029" d="M65.75 64.04q.12.73.13 1.46.12 79.73.12 159.46l-24.44-.11a.57.56 90 0 1-.56-.57V64.51a.5.5 0 0 1 .5-.5z"/><path fill="#3f48cc" d="m116.06 224.97-.11-160.73 24.48-.08a.56.56 0 0 1 .57.56v159.82a.45.45 0 0 1-.45.45z"/><path fill="#22b14c" d="m91 64.04 24.95.2.11 160.73H90.94z"/></svg>

<?xml version="1.0" encoding="UTF-8" standalone="no"?>
<!DOCTYPE svg PUBLIC "-//W3C//DTD SVG 1.1//EN" "http://www.w3.org/Graphics/SVG/1.1/DTD/svg11.dtd">
<svg xmlns="http://www.w3.org/2000/svg" version="1.1" viewBox="0 0 600 300">
<g stroke-width="2.00" fill="none" stroke-linecap="butt">
<path stroke="#ffc015" vector-effect="non-scaling-stroke" d="
  M 65.75 64.04
  Q 65.87 64.77 65.88 65.50
  Q 66.00 145.23 66.00 224.96"
/>
<path stroke="#91d826" vector-effect="non-scaling-stroke" d="
  M 91.00 64.04
  L 90.94 224.97"
/>
<path stroke="#317d8c" vector-effect="non-scaling-stroke" d="
  M 115.95 64.24
  L 116.06 224.97"
/>
</g>
<path fill="#ffff00" d="
  M 65.75 64.04
  L 91.00 64.04
  L 90.94 224.97
  L 66.00 224.96
  Q 66.00 145.23 65.88 65.50
  Q 65.87 64.77 65.75 64.04
  Z"
/>
<g fill="#000000">
<path d="
  M 280.90 144.00
  A 65.90 65.90 0.0 0 1 215.00 209.90
  A 65.90 65.90 0.0 0 1 149.10 144.00
  A 65.90 65.90 0.0 0 1 215.00 78.10
  A 65.90 65.90 0.0 0 1 280.90 144.00
  Z
  M 274.96 144.00
  A 59.96 59.96 0.0 0 0 215.00 84.04
  A 59.96 59.96 0.0 0 0 155.04 144.00
  A 59.96 59.96 0.0 0 0 215.00 203.96
  A 59.96 59.96 0.0 0 0 274.96 144.00
  Z"
/>
<path d="
  M 498.32 142.80
  A 0.34 0.34 0.0 0 0 498.93 143.04
  C 505.21 135.12 516.91 136.85 520.53 146.23
  C 524.12 155.55 518.26 167.18 507.50 166.79
  Q 497.83 166.45 494.66 156.56
  C 492.25 149.02 492.26 133.68 498.38 127.09
  C 505.37 119.54 518.18 121.71 520.59 132.44
  A 1.00 0.99 82.1 0 1 519.68 133.65
  L 516.15 133.89
  A 0.78 0.76 79.4 0 1 515.37 133.34
  Q 512.98 125.26 505.64 127.53
  C 499.82 129.33 498.65 138.14 498.32 142.80
  Z
  M 508.0560 162.5074
  A 9.96 8.58 88.7 0 0 516.4078 152.3553
  A 9.96 8.58 88.7 0 0 507.6040 142.5926
  A 9.96 8.58 88.7 0 0 499.2522 152.7447
  A 9.96 8.58 88.7 0 0 508.0560 162.5074
  Z"
/>
<path d="
  M 195.52 146.81
  L 195.45 160.44
  A 0.56 0.56 0.0 0 0 196.01 161.00
  L 221.19 161.00
  A 0.56 0.56 0.0 0 1 221.75 161.56
  L 221.75 165.44
  A 0.56 0.56 0.0 0 1 221.19 166.00
  L 190.31 166.00
  A 0.56 0.56 0.0 0 1 189.75 165.44
  L 189.75 123.56
  A 0.56 0.56 0.0 0 1 190.31 123.00
  L 220.19 123.00
  A 0.56 0.56 0.0 0 1 220.75 123.56
  L 220.75 127.44
  A 0.56 0.56 0.0 0 1 220.19 128.00
  L 196.06 128.00
  A 0.56 0.56 0.0 0 0 195.50 128.56
  L 195.50 140.69
  A 0.56 0.56 0.0 0 0 196.06 141.25
  L 218.69 141.25
  A 0.56 0.56 0.0 0 1 219.25 141.81
  L 219.25 145.69
  A 0.56 0.56 0.0 0 1 218.69 146.25
  L 196.08 146.25
  A 0.56 0.56 0.0 0 0 195.52 146.81
  Z"
/>
<rect x="-2.63" y="-3.00" transform="translate(230.88,126.00) rotate(0.4)" width="5.26" height="6.00" rx="0.60"/>
<path d="
  M 306.50 149.06
  L 306.50 165.37
  A 0.63 0.63 0.0 0 1 305.87 166.00
  L 301.37 166.00
  A 0.63 0.62 -90.0 0 1 300.75 165.37
  L 300.75 123.47
  A 0.43 0.42 -90.0 0 1 301.17 123.04
  Q 307.56 122.94 314.00 123.01
  C 322.07 123.11 328.95 122.60 332.19 129.80
  Q 334.89 135.79 332.09 141.61
  C 327.94 150.21 316.30 148.54 307.00 148.56
  A 0.50 0.50 0.0 0 0 306.50 149.06
  Z
  M 306.47 128.62
  L 306.51 142.99
  A 0.51 0.50 89.4 0 0 307.01 143.49
  Q 313.55 143.61 320.05 143.35
  C 328.34 143.02 330.82 132.15 323.78 128.92
  C 319.95 127.16 311.81 128.03 307.09 128.01
  A 0.61 0.61 0.0 0 0 306.47 128.62
  Z"
/>
<path d="
  M 541.94 123.94
  Q 543.51 121.89 546.30 123.24
  A 0.79 0.78 -77.6 0 1 546.75 123.95
  L 546.75 150.37
  A 0.63 0.63 0.0 0 0 547.38 151.00
  L 551.88 151.00
  A 0.62 0.62 0.0 0 1 552.50 151.62
  L 552.50 155.12
  A 0.63 0.62 -90.0 0 1 551.88 155.75
  L 547.50 155.75
  A 0.75 0.75 0.0 0 0 546.75 156.50
  L 546.75 165.37
  A 0.63 0.62 -90.0 0 1 546.13 166.00
  L 542.13 166.00
  A 0.63 0.63 0.0 0 1 541.50 165.37
  L 541.50 156.25
  A 0.50 0.50 0.0 0 0 541.00 155.75
  L 523.51 155.75
  A 0.59 0.59 0.0 0 1 522.93 155.28
  C 522.47 153.12 522.52 151.42 523.85 149.50
  Q 537.96 129.13 541.94 123.94
  Z
  M 541.52 132.79
  A 0.33 0.33 0.0 0 0 540.92 132.60
  L 528.30 150.48
  A 0.33 0.33 0.0 0 0 528.57 151.00
  L 541.20 151.00
  A 0.33 0.33 0.0 0 0 541.53 150.67
  L 541.52 132.79
  Z"
/>
<path d="
  M 356.04 166.22
  C 334.10 170.99 330.80 139.51 346.79 134.92
  C 358.83 131.45 366.66 139.79 365.90 151.17
  A 0.62 0.62 0.0 0 1 365.28 151.75
  L 342.98 151.75
  A 0.58 0.58 0.0 0 0 342.40 152.35
  C 342.79 162.85 355.15 166.78 360.57 156.67
  A 0.88 0.88 0.0 0 1 361.45 156.21
  L 365.05 156.63
  A 0.63 0.62 -78.0 0 1 365.57 157.44
  Q 363.34 164.63 356.04 166.22
  Z
  M 360.61 146.99
  C 359.77 135.14 343.50 135.46 342.58 147.00
  A 0.47 0.46 2.2 0 0 343.05 147.50
  L 360.13 147.50
  A 0.48 0.48 0.0 0 0 360.61 146.99
  Z"
/>
<path d="
  M 377.83 135.08
  C 384.71 131.78 393.80 135.13 395.61 143.37
  A 0.59 0.57 -11.1 0 1 395.13 144.07
  L 391.28 144.67
  A 0.76 0.76 0.0 0 1 390.46 144.21
  C 388.37 139.30 384.48 136.03 379.30 139.39
  C 374.03 142.80 373.93 151.70 375.72 157.02
  C 377.93 163.60 388.12 164.82 390.46 157.51
  Q 390.87 156.23 391.32 154.98
  A 0.63 0.63 0.0 0 1 392.00 154.58
  L 395.71 155.11
  A 0.86 0.86 0.0 0 1 396.42 156.19
  Q 393.76 165.84 385.02 166.62
  C 366.99 168.23 364.26 141.59 377.83 135.08
  Z"
/>
<path d="
  M 403.89 135.96
  C 409.10 132.76 416.53 133.48 421.09 137.66
  C 426.52 142.64 427.04 153.23 423.82 159.46
  C 418.56 169.62 402.18 169.37 398.16 157.62
  C 395.61 150.13 396.75 140.35 403.89 135.96
  Z
  M 411.3370 162.6699
  A 12.31 9.33 90.2 0 0 420.7099 150.3926
  A 12.31 9.33 90.2 0 0 411.4230 138.0501
  A 12.31 9.33 90.2 0 0 402.0501 150.3274
  A 12.31 9.33 90.2 0 0 411.3370 162.6699
  Z"
/>
<path d="
  M 435.56 138.26
  A 0.33 0.32 -23.8 0 0 436.14 138.48
  C 439.98 133.73 450.70 131.28 453.39 138.47
  A 0.52 0.52 0.0 0 0 454.25 138.65
  Q 459.27 133.50 465.14 134.13
  C 470.12 134.65 472.94 138.00 473.08 142.94
  Q 473.39 154.20 473.17 165.46
  A 0.55 0.54 -89.5 0 1 472.63 166.00
  L 468.61 166.00
  A 0.56 0.56 0.0 0 1 468.05 165.44
  Q 467.99 154.95 468.02 144.51
  C 468.04 136.94 458.71 136.86 455.85 142.22
  C 453.49 146.63 454.73 159.96 454.75 165.36
  A 0.64 0.64 0.0 0 1 454.11 166.00
  L 450.14 166.00
  A 0.64 0.64 0.0 0 1 449.50 165.36
  Q 449.54 154.90 449.47 144.51
  C 449.42 136.25 439.48 137.12 437.06 143.15
  C 435.07 148.12 436.22 159.70 436.25 165.37
  A 0.63 0.63 0.0 0 1 435.62 166.00
  L 431.63 166.00
  A 0.63 0.63 0.0 0 1 431.00 165.37
  L 431.00 135.37
  A 0.63 0.63 0.0 0 1 431.63 134.74
  L 435.12 134.75
  A 0.63 0.63 0.0 0 1 435.75 135.43
  L 435.56 138.26
  Z"
/>
<rect x="228.25" y="134.75" width="5.26" height="31.26" rx="0.60"/>
</g>
<path fill="#ff8029" d="
  M 65.75 64.04
  Q 65.87 64.77 65.88 65.50
  Q 66.00 145.23 66.00 224.96
  L 41.56 224.85
  A 0.57 0.56 90.0 0 1 41.00 224.28
  L 41.00 64.51
  A 0.50 0.50 0.0 0 1 41.50 64.01
  L 65.75 64.04
  Z"
/>
<path fill="#3f48cc" d="
  M 116.06 224.97
  L 115.95 64.24
  L 140.43 64.16
  A 0.56 0.56 0.0 0 1 141.00 64.72
  L 141.00 224.54
  A 0.45 0.45 0.0 0 1 140.55 224.99
  L 116.06 224.97
  Z"
/>
<path fill="#22b14c" d="
  M 91.00 64.04
  L 115.95 64.24
  L 116.06 224.97
  L 90.94 224.97
  L 91.00 64.04
  Z"
/>
</svg>
